!!!COM: Haydn, Franz Joseph
!!!OTL: Quartet 
!!!ONM: Opus 20, No. 2
!!!OMV: 2
!!!CDT: 1732/3/31/-1809/5/31/
!!!OCY: \O3sterreich
**kern	**kern	**kern	**kern
*clefF4	*clefC3	*clefG	*clefG
*k[b-e-a-]	*k[b-e-a-]	*k[b-e-a-]	*k[b-e-a-]
*E-:	*E-:	*E-:	*E-:
*M4/4	*M4/4	*M4/4	*M4/4
=1	=1	=1	=1
4C	4c	4c	4c
4E-	4e-	4e-	4e-
8BB	8B	8B	8B
8G	8g	8g	8g
8r	8r	8r	8r
8B	8b	8b	8b
=2	=2	=2	=2
8.c	8.cc	8.cc	8.cc
16B-	16b-	16b-	16b-
8.A-	8.a-	8.a-	8.a-
32G	32g	32g	32g
32A-	32a-	32a-	32a-
8B-	8b-	8b-	8b-
8BB-	8B-	8B-	8B-
8r	8r	8r	8r
8B-	8b-	8b-	8b-
=3	=3	=3	=3
8.G	8.g	8.g	8.g
32F	32f	32f	32f
32G	32g	32g	32g
8A-	8a-	8a-	8a-
16.AA-	16.A-	16.A-	16.A-
32A-	32a-	32a-	32a-
8.F	8.f	8.f	8.f
32E-	32e-	32e-	32e-
32F	32f	32f	32f
8G	8g	8g	8g
16.GG	16.G	16.G	16.G
32F	32f	32f	32f
=4	=4	=4	=4
16.E-	16.e-	16.e-	16.e-
32D	32d	32d	32d
16.C	16.c	16.c	16.c
32BB-	32B-	32B-	32B-
8.AA-	8.A-	8.A-	8.A-
32GG	32G	32G	32G
32AA-	32A-	32A-	32A-
8GG	8G	8G	8G
8G	8g	8g	8g
4r	4r	4r	4r
=5	=5	=5	=5
4C	16c	16e-	16g
.	16c	16e-	16g
.	16c	16e-	16g
.	16c	16e-	16g
4E-	16c	16e-	16g
.	16c	16e-	16g
.	16c	16e-	16g
.	16c	16e-	16g
8BB	16d	16f	16g
.	16d	16f	16g
8G	16d	16f	16g
.	16d	16f	16g
8r	16d	16f	16g
.	16d	16f	16g
8B	16d	16f	16g
.	16d	16f	16g
=6	=6	=6	=6
8.c	16c	16e-	16g
.	16c	16e-	16g
.	16c	16e-	16g
16B-	16c	16e-	16g
8.A-	16c	16e-	16f
.	16c	16e-	16f
.	16c	16e-	16f
32G	16c	16e-	16f
32A-	.	.	.
8B-	16B-	16d	16f
.	16B-	16d	16f
8BB-	16B-	16d	16f
.	16B-	16d	16f
8r	16B-	16d	16f
.	16B-	16d	16f
8B-	16B-	16d	16f
.	16B-	16d	16f
=7	=7	=7	=7
8.G	16B-	16d	16e-
.	16B-	16d	16e-
.	16B-	16d	16e-
32F	16B-	16d	16e-
32G	.	.	.
8A-	16A-	16c	16e-
.	16A-	16c	16e-
16.AA-	16A-	16c	16e-
.	16A-	16c	16e-
32A-	.	.	.
8.F	16A-	16c	16d
.	16A-	16c	16d
.	16A-	16c	16d
32E-	16A-	16c	16d
32F	.	.	.
8G	16G	16B	16d
.	16G	16B	16d
16.GG	16G	16B	16d
.	16G	16B	16d
32G	.	.	.
=8	=8	=8	=8
16.C	16.G	16.c	16.e-
32C	32G	32c	32e-
16.BB-	16.G	16.c	16.e
32BB-	32G	32c	32e
8AA-	8A-	8c	8f
8r	8r	8r	8r
16.A-	16.A-	16.c	16.f
32A-	32A-	32c	32f
16.E	16.B-	16.c	16.g
32E	32B-	32c	32g
8F	8A-	8c	8a-
8r	8r	8r	16r
.	.	.	16A-
=9	=9	=9	=9
1r	2r	1r	16c
.	.	.	16f
.	.	.	16a-
.	.	.	16cc
.	.	.	16ff
.	.	.	16aa-
.	.	.	16ccc
.	.	.	16bb-
.	16r	.	16aa-
.	16b-	.	16gg
.	16a-	.	16ff
.	16g	.	16ee
.	16b-	.	16gg
.	16a-	.	16ff
.	16cc	.	16aa-
.	16b-	.	16gg
=10	=10	=10	=10
2r	16a-	16r	16ff
.	16g	16b-	16ee-
.	16f	16a-	16dd
.	16e-	16g	16cc
.	16d	16f	16b-
.	16c	16e-	16a-
.	16B-	16d	16g
.	16A-	16c	16f
16.G	16.G	16.B-	16.e-
32G	32G	32B-	32e-
16.F	16.c	16.d	16.a-
32F	32c	32d	32a-
8E-	8c	8e-	8g
8r	8r	8r	8r
=11	=11	=11	=11
16.E-	16.B-	16.e-	16.g
32E-	32B-	32e-	32g
16.D-	16.e-	16.g	16.b-
32D-	32e-	32g	32b-
8C	8e-	8a-	8ee-
2r	2r	2r	16r
.	.	.	16A-
.	.	.	16c
.	.	.	16e-
.	.	.	16a-
.	.	.	16cc
.	.	.	16ee-
.	.	.	16aa-
8r	8r	8r	16ccc
.	.	.	16bb-
=12	=12	=12	=12
1r	1r	1r	16aa-
.	.	.	16gg
.	.	.	16ff
.	.	.	16ee-
.	.	.	16dd-
.	.	.	16cc
.	.	.	16ee-
.	.	.	16dd-
.	.	.	16ff
.	.	.	16ee-
.	.	.	16dd-
.	.	.	16cc
.	.	.	16b-
.	.	.	16a-
.	.	.	16g
.	.	.	16b-
=13	=13	=13	=13
2r	16r	1r	16a-
.	16c	.	16cc
.	16B-	.	16b-
.	16A-	.	16a-
.	16G	.	16g
.	16F	.	16f
.	16E-	.	16e-
.	16D-	.	16d-
8.r	16C	.	16c
.	16E-	.	16e-
.	16D-	.	16d-
16F	16F	.	16f
16E-	16E-	.	16e-
16D-	16d-	.	16d-
16C	16c	.	16c
16BB-	16B-	.	16B-
=14	=14	=14	=14
16AA	16A	16A	16A
16C	16c	16c	16c
16E-	16e-	16e-	16e-
16G-	16g-	16g-	16g-
16A	16a	16a	16a
16c	16cc	16cc	16cc
16e-	16ee-	16ee-	16ee-
2r	2r	2r	16cc
.	.	.	16gg-
.	.	.	16ee-
.	.	.	16ccc
.	.	.	16aa
.	.	.	16eee-
.	.	.	16eee-
.	.	.	16eee-
16r	16r	16r	16eee-
=15	=15	=15	=15
4r	4r	4r	8eee-
.	.	.	8.r
16r	16r	16r	.
16c	16a	16gg-	16eee-
16c	16a	16gg-	16eee-
16c	16a	16gg-	16eee-
8c	8a	8gg-	8eee-
4.r	4.r	4.r	8.r
.	.	.	16eee-
.	.	.	16eee-
.	.	.	16eee-
=16	=16	=16	=16
1r	1r	1r	4eee-
.	.	.	16eee-
.	.	.	16ddd-
.	.	.	16ccc
.	.	.	16bb-
.	.	.	16aa
.	.	.	16ggg-
.	.	.	16ggg-
.	.	.	16ggg-
.	.	.	16ggg-
.	.	.	16ggg-
.	.	.	16ggg-
.	.	.	16ggg-
=17	=17	=17	=17
16r	16r	16r	[4ggg-
16e-	16cc	16aa	.
16e-	16cc	16aa	.
16e-	16cc	16aa	.
8e-	8cc	8aa	16ggg-]
.	.	.	32fff
.	.	.	32eee-
8..r	8..r	8..r	32ddd-
.	.	.	32ccc
.	.	.	32bb-
.	.	.	32aa
.	.	.	16.bb-
32d-	32b-	32ff	32ddd-
16.d-	16.b-	16.ff	16.ddd-
32d-	32b-	32ff	32ddd-
8d-	8b-	8ff	8ddd-
8r	8r	8r	8r
=18	=18	=18	=18
24BB-	24B-	24B-	24B-
24D-	24d-	24d-	24d-
24F	24f	24f	24f
24B-	24b-	24b-	24b-
24d-	24dd-	24dd-	24dd-
24c	24cc	24cc	24cc
24B-	24b-	24b-	24b-
24c	24cc	24cc	24cc
24B-	24b-	24b-	24b-
24A-	24a-	24a-	24a-
24G	24g	24g	24g
24F	24f	24f	24f
16.E	16.e	16.e	16.e
32E	32c	32cc 32gg	32bb- 32cc
16.E	16.c	16.gg 16.cc	16.bb- 16.cc
32E	32c	32gg 32cc	32bb- 32cc
8E	8c	8gg 8cc	8bb- 8cc
8r	8r	8r	8r
=19	=19	=19	=19
1r	1r	8r	8r
.	.	8cc	8aa-
.	.	8b-	8gg
.	.	8a-	8ff
.	.	8g	8ee
.	.	8dd-	8bb-
.	.	8cc	8aa-
.	.	8b-	8gg
=20	=20	=20	=20
1r	1r	16a-	16ff
.	.	16g	16ee
.	.	16b-	16gg
.	.	16a-	16ff
.	.	16cc	16aa-
.	.	16b-	16gg
.	.	16a-	16ff
.	.	16g	16ee-
.	.	16f	16dd
.	.	16e-	16cc
.	.	16g	16ee-
.	.	16f	16dd
.	.	16a-	16ff
.	.	16g	16ee-
.	.	16f	16dd
.	.	16e-	16cc
=21	=21	=21	=21
16r	16r	16d	16b
16BB	16B	16B	16B
16D	16d	16d	16d
16F	16f	16f	16f
16A-	16a-	16a-	16a-
16B	16b	16B	16b
16d	16dd	16d	16dd
2r	2r	16f	16ff
.	.	[4a-	[4aa-
.	.	16a-]	16aa-]
.	.	32g	32gg
.	.	32f	32ff
.	.	32e-	32ee-
.	.	32d	32dd
16r	16r	32c	32cc
.	.	32B	32b
=22	=22	=22	=22
16r	16r	16c	16cc
16C	16c	16c	16c
16E-	16e-	16e-	16e-
16G	16g	16g	16g
16c	16cc	16cc	16cc
16G	16g	16g	16g
16e-	16ee-	16ee-	16ee-
16c	16cc	16cc	16cc
24g	24gg	24gg	24gg
24f	24ff	24ff	24ff
24e-	24ee-	24ee-	24ee-
24d	24dd	24dd	24dd
24c	24cc	24cc	24cc
24B	24b	24b	24b
32c	32cc	32cc	32cc
32d	32dd	32dd	32dd
32e-	32ee-	32ee-	32ee-
32d	32dd	32dd	32dd
32c	32cc	32cc	32cc
32B-	32b-	32b-	32b-
32A	32a	32a	32a
32G	32g	32g	32g
=23	=23	=23	=23
16F#	16f#	16f#	16f#
16AA	16A	16A	16A
16C	16c	16c	16c
16E-	16e-	16e-	16e-
16F#	16f#	16f#	16f#
16A	16a	16a	16a
16c	16cc	16cc	16cc
16e-	16ee-	16ee-	16ee-
4.e-	4.ee-	4.ee-	4.ee-
8d	8dd	8dd	8dd
=24	=24	=24	=24
16.c	16.a	16.dd	16.ff#
32c	32a	32dd	32ff#
16.B-	16.g	16.dd	16.gg
32B-	32g	32dd	32gg
16.A	16.c	16.ff#	16.aa
32A	32c	32ff#	32aa
16.G	16.B-	16.gg	16.bb-
32G	32B-	32gg	32bb-
16.F#	16.A	16.aa	16.ccc
32F#	32A	32ccc	32eee-
16.F#	16.A	16.ccc	16.eee-
32F#	32A	32ccc	32eee-
8F#	8A	8ccc	8eee-
8r	8r	8r	8r
=25	=25	=25	=25
2r	2r	16.r	16.r
.	.	32ccc	32eee-
.	.	16.ccc	16.eee-
.	.	32ccc	32eee-
.	.	8ccc	8eee-
.	.	8..r	8..r
16.r	16.r	.	.
32f#	32a	32cc	32dd
16.f#	16.a	16.cc	16.dd
32f#	32a	32cc	32dd
8f#	8a	8cc	8dd
8r	8r	8r	8r
=26	=26	=26	=26
4G	16g	16b-	16dd
.	16g	16b-	16dd
.	16g	16b-	16dd
.	16g	16b-	16dd
4B-	16g	16b-	16dd
.	16g	16b-	16dd
.	16g	16b-	16dd
.	16g	16b-	16dd
8F#	16a	16cc	16dd
.	16a	16cc	16dd
8d	16a	16cc	16dd
.	16a	16cc	16dd
8r	16a	16cc	16dd
.	16a	16cc	16dd
8f#	16a	16cc	16dd
.	16a	16cc	16dd
=27	=27	=27	=27
8.g	16g	16b-	16dd
.	16g	16b-	16dd
.	16g	16b-	16dd
16f	16g	16b-	16dd
8.e-	16g	16b-	16cc
.	16g	16b-	16cc
.	16g	16b-	16cc
32d	16g	16b-	16cc
32e-	.	.	.
8f	16f	16a	16cc
.	16f	16a	16cc
8F	16f	16a	16cc
.	16f	16a	16cc
8r	16f	16a	16cc
.	16f	16a	16cc
8f	16f	16a	16cc
.	16f	16a	16cc
=28	=28	=28	=28
8.d	16f	16a	16b-
.	16f	16a	16b-
.	16f	16a	16b-
32c	16f	16a	16b-
32d	.	.	.
8e-	16e-	16g	16b-
.	16e-	16g	16b-
16.E-	16e-	16g	16b-
.	16e-	16g	16b-
32e-	.	.	.
8.c	16e-	16g	16a
.	16e-	16g	16a
.	16e-	16g	16a
32B-	16e-	16g	16a
32c	.	.	.
8d	16d	16f#	16a
.	16d	16f#	16a
16.D	16d	16f#	16a
.	16d	16f#	16a
32c	.	.	.
=29	=29	=29	=29
16.B-	16.d	16.g	16.g
32B-	32d	32g	32g
16.F#	16.c	16.d	16.a
32F#	32c	32d	32a
8G	8B-	8d	8b-
8r	8r	8r	8r
16.G	16.d	16.g	16.b-
32G	32d	32g	32b-
16.F	16.d	16.g	16.b
32F	32d	32g	32b
16.E-	16.c	16.g	16.cc
32E-	32c	32g	32cc
16.BB	16.f	16.g	16.dd
32BB	32f	32g	32dd
=30	=30	=30	=30
4C	4e-	4g	8ee-
.	.	.	32ccc
.	.	.	32ddd
.	.	.	32eee-
.	.	.	32ddd
16.r	16.r	16.r	8ccc
32A-	32c	32e-	.
16.A-	16.c	16.e-	4r
32A-	32c	32e-	.
4A-	4c	4e-	.
.	.	.	32ccc
.	.	.	32ddd
.	.	.	32eee-
.	.	.	32ddd
16.r	16.r	16.r	8ccc
32G	32c	32e-	.
16.G	16.c	16.e-	8r
32G	32c	32e-	.
=31	=31	=31	=31
4G	4c	4e-	8r
.	.	.	32ccc
.	.	.	32ddd
.	.	.	32eee-
.	.	.	32ddd
16.r	16.r	16.r	8ccc
32F#	32c	32e-	.
16.F#	16.c	16.e-	2r
32F#	32c	32e-	.
4F#	4c	4e-	.
4r	4r	4r	.
.	.	.	32ccc
.	.	.	32eee-
.	.	.	32fff#
.	.	.	32eee-
=32	=32	=32	=32
4r	4r	4r	32ccc
.	.	.	32eee-
.	.	.	32fff#
.	.	.	32eee-
.	.	.	32ccc
.	.	.	32eee-
.	.	.	32fff#
.	.	.	32eee-
16.r	16.r	16.r	8ccc
32FF#	32F#	32c	.
16.FF#	16.F#	16.c	4r
32FF#	32F#	32c	.
=33	=33	=33	.
8GG	8G	8B	.
.	.	.	8..r
8r	8r	8r	.
8GG	8D	8B	.
.	.	.	32e-
.	.	.	16.e-
16.r	16.r	16.r	.
.	.	.	32e-
32GG	32D	32B	.
.	.	.	=33
4GG	4D	4B	8d
.	.	.	8r
4r	4r	4r	8g
.	.	.	16.r
.	.	.	32g
=34	=34	=34	4g
8EE-	24B-	8r	.
.	24e-	.	.
.	24g	.	.
4.r	24b-	8e-	.
.	24g	.	.
.	24e-	.	.
.	.	.	4r
.	24B-	8g	.
.	24e-	.	.
.	24g	.	.
.	24b-	8e-	.
.	24g	.	.
.	24e-	.	.
.	.	.	=34
4E-	24B-	8r	2b-
.	24e-	.	.
.	24g	.	.
.	24b-	8e-	.
.	24g	.	.
.	24e-	.	.
4r	24B-	8f	.
.	24e-	.	.
.	24g	.	.
.	24b-	8g	.
.	24g	.	.
.	24e-	.	.
=35	=35	=35	4gg
4BB-	24B-	8r	.
.	24d	.	.
.	24f	.	.
.	24b-	8f	.
.	24a-	.	.
.	24d	.	.
.	.	.	8ff
4r	24B-	8a-	.
.	24d	.	.
.	24f	.	.
.	.	.	8ee-
.	24b-	8d	.
.	24a-	.	.
.	24d	.	.
.	.	.	=35
4E-	24B-	8r	4dd
.	24e-	.	.
.	24g	.	.
.	24b-	8e-	.
.	24g	.	.
.	24e-	.	.
4r	24B-	8g	8.dd
.	24e-	.	.
.	24g	.	.
.	24b-	8e-	.
.	24g	.	.
.	.	.	32ee-
.	24e-	.	.
.	.	.	32ff
=36	=36	=36	4ee-
4AA-	24c	8r	.
.	24e-	.	.
.	24a-	.	.
.	24cc	8e-	.
.	24a-	.	.
.	24e-	.	.
.	.	.	4r
4r	24c	8a-	.
.	24e-	.	.
.	24a-	.	.
.	24cc	8A-	.
.	24a-	.	.
.	24e-	.	.
.	.	.	=36
4E-	24B-	8G	2ccc
.	24e-	.	.
.	24g	.	.
.	24b-	8e-	.
.	24g	.	.
.	24e-	.	.
4r	24B-	8g	.
.	24e-	.	.
.	24g	.	.
.	24b-	8e-	.
.	24g	.	.
.	24e-	.	.
=37	=37	=37	8bb-
4BB-	24B-	8r	.
.	24d	.	.
.	24f	.	.
.	.	.	8ggg
.	24a-	8d	.
.	24f	.	.
.	24d	.	.
.	.	.	8eee-
4r	24B-	8f	.
.	24d	.	.
.	24f	.	.
.	.	.	8ccc
.	24a-	8d	.
.	24f	.	.
.	24d	.	.
.	.	.	=37
4EE-	24B-	8r	2aa-
.	24e-	.	.
.	24g	.	.
.	24b-	8e-	.
.	24g	.	.
.	24e-	.	.
4r	24B-	8g	.
.	24e-	.	.
.	24g	.	.
.	24b-	8e-	.
.	24g	.	.
.	24e-	.	.
=38	=38	=38	4gg
4E-	24B-	8r	.
.	24e-	.	.
.	24g	.	.
.	24b-	8g	.
.	24g	.	.
.	24e-	.	.
.	.	.	4r
4r	24B-	8b-	.
.	24e-	.	.
.	24g	.	.
.	24b-	8e-	.
.	24g	.	.
.	24e-	.	.
.	.	.	=38
4D	24B-	8r	4e-
.	24d	.	.
.	24f	.	.
.	24b-	8f	.
.	24f	.	.
.	24d	.	.
4r	24B-	8d	4gg
.	24d	.	.
.	24f	.	.
.	24b-	8B-	.
.	24f	.	.
.	24d	.	.
=39	=39	=39	8ff
4C	24c	8r	.
.	24e-	.	.
.	24g	.	.
.	.	.	8dd
.	24b-	8g	.
.	24g	.	.
.	24e-	.	.
.	.	.	4b-
4FF	24c	8a	.
.	24e-	.	.
.	24f	.	.
.	24a	8cc	.
.	24f	.	.
.	24e-	.	.
.	.	.	=39
4BB-	24B-	8r	8ee-
.	24d	.	.
.	24f	.	.
.	24b-	8f	8.eee-
.	24f	.	.
.	24d	.	.
4r	24B-	8b-	.
.	24d	.	.
.	.	.	32ddd
.	24f	.	.
.	.	.	32ccc
.	24b-	8f	32bb-
.	.	.	32aa
.	24f	.	.
.	.	.	32gg
.	24d	.	.
.	.	.	32ff
=40	=40	=40	4dd
4D	24B-	8r	.
.	24d	.	.
.	24f	.	.
.	24b-	8b-	.
.	24f	.	.
.	24d	.	.
.	.	.	4r
4r	24B-	8f	.
.	24d	.	.
.	24f	.	.
.	24b-	8a-	.
.	24f	.	.
.	24d	.	.
.	.	.	=40
4E-	24B-	8r	4ff
.	24e-	.	.
.	24g	.	.
.	24b-	8B-	.
.	24g	.	.
.	24e-	.	.
4r	24B-	8e-	4bb-
.	24e-	.	.
.	24g	.	.
.	24b-	8g	.
.	24g	.	.
.	24e-	.	.
=41	=41	=41	4.gg
4E-	24c	8r	.
.	24e-	.	.
.	24g	.	.
.	24b-	8c	.
.	24g	.	.
.	24e-	.	.
4E	24c	8g	.
.	24e	.	.
.	24g	.	.
.	.	.	8ee-
.	24b-	8c	.
.	24g	.	.
.	24e	.	.
.	.	.	=41
8F	24c	6..r	[4cc
.	24e	.	.
.	24f	.	.
6r	24a	.	.
.	24cc	.	.
.	24b-	.	.
.	24a	.	16cc]
24G	24g	24g	.
.	.	.	16cc
24F	24f	24f	.
24E-	24e-	24e-	16dd
24D	24d	24d	.
.	.	.	16b-
24C	24c	24c	.
=42	=42	=42	4a
8BB-	24d	4B-	.
.	24f	.	.
.	24a	.	.
8r	24b-	.	.
.	24f	.	.
.	24d	.	.
.	.	.	4r
8F	24c	4r	.
.	24e-	.	.
.	24f	.	.
8r	24a	.	.
.	24f	.	.
.	24e-	.	.
.	.	.	=42
8B-	24d	4d	4dd
.	24f	.	.
.	24a	.	.
8r	24b-	.	.
.	24f	.	.
.	24d	.	.
8F	24c	8e-	8ee-
.	24e-	.	.
.	24f	.	.
8r	24a	8c	8cc
.	24f	.	.
.	24e-	.	.
=43	=43	=43	8.b-
8BB-	24d	8.B-	.
.	24f	.	.
.	24a	.	.
8r	24b-	.	.
.	24f	.	.
.	.	.	32cc
.	.	32c	.
.	24d	.	32dd
.	.	32d	.
.	.	.	8cc
8F	24c	8c	.
.	24e-	.	.
.	24f	.	.
.	.	.	8r
8r	24a	8r	.
.	24f	.	.
.	24e-	.	.
.	.	.	=43
8B-	24d	4d	4dd
.	24f	.	.
.	24a	.	.
8r	24b-	.	.
.	24f	.	.
.	24d	.	.
8F	24c	8e-	8ee-
.	24e-	.	.
.	24f	.	.
8r	24a	8c	8cc
.	24f	.	.
.	24e-	.	.
=44	=44	=44	8.b-
4D	24d	8B-	.
.	24f	.	.
.	24a	.	.
.	24b-	8d	.
.	24f	.	.
.	.	.	32cc
.	24d	.	32dd
.	.	.	8cc
4r	24B-	8f	.
.	24d	.	.
.	24f	.	.
.	.	.	8r
.	24b-	8d	.
.	24f	.	.
.	24d	.	.
.	.	.	=44
4E-	24B-	8r	4ff
.	24e-	.	.
.	24g	.	.
.	24b-	8B-	.
.	24g	.	.
.	24e-	.	.
4r	24B-	8g	4bb-
.	24e-	.	.
.	24g	.	.
.	24b-	8e-	.
.	24g	.	.
.	24e-	.	.
=45	=45	=45	4gg
4F	24d	8r	.
.	24f	.	.
.	24a	.	.
.	24b-	8d	.
.	24f	.	.
.	24d	.	.
.	.	.	16ff
4r	24c	8e-	.
.	24e-	.	.
.	.	.	16ee-
.	24f	.	.
.	.	.	16dd
.	24a	8c	.
.	24f	.	.
.	.	.	16cc
.	24e-	.	.
.	.	.	=45
4BB-	24d	8r	4b-
.	24f	.	.
.	24a	.	.
.	24b-	8B-	.
.	24f	.	.
.	24d	.	.
4r	24B-	8d	8cc
.	24d	.	.
.	24f	.	.
.	24b-	8f	16.r
.	24f	.	.
.	24d	.	.
.	.	.	32b-
=46	=46	=46	4b-
8D	8B-	8B-	.
8r	8r	8r	.
.	.	.	4r
8D	8d	8b-	.
8r	8r	8r	.
.	.	.	=46
4D	4d	4b-	8bb-
.	.	.	32bb-
.	.	.	32ff
.	.	.	32bb-
.	.	.	32ff
4r	4r	4r	8bb-
.	.	.	32bb-
.	.	.	32ff
.	.	.	32bb-
.	.	.	32ff
=47	=47	=47	32bb-
4E-	4e-	4b-	.
.	.	.	32ff#
.	.	.	32bb-
.	.	.	32ff#
.	.	.	32bb-
.	.	.	32ff#
.	.	.	32bb-
.	.	.	32ff#
.	.	.	32bb-
2.r	2.r	2.r	.
.	.	.	32ff#
.	.	.	32bb-
.	.	.	32ff#
.	.	.	32bb-
.	.	.	32ff#
.	.	.	32bb-
.	.	.	32ff#
.	.	.	=47
.	.	.	32gg
.	.	.	32ff#
.	.	.	32gg
.	.	.	32ff#
.	.	.	32gg
.	.	.	32ff#
.	.	.	32gg
.	.	.	32ff#
.	.	.	8.gg
.	.	.	16aa
=48	=48	=48	24bb-
1r	1r	1r	.
.	.	.	24ff#
.	.	.	24gg
.	.	.	24bb-
.	.	.	24b
.	.	.	24cc
.	.	.	24bb-
.	.	.	24ff#
.	.	.	24gg
.	.	.	24bb-
.	.	.	24cc#
.	.	.	24dd
.	.	.	=48
.	.	.	24bb-
.	.	.	24ff#
.	.	.	24gg
.	.	.	24bb-
.	.	.	24dd
.	.	.	24ee-
.	.	.	24bb-
.	.	.	24dd
.	.	.	24ee-
.	.	.	24gg
.	.	.	24b
.	.	.	24cc
=49	=49	=49	24bb-
1r	1r	1r	.
.	.	.	24dd
.	.	.	24ee-
.	.	.	24gg
.	.	.	24b
.	.	.	24cc
.	.	.	24bb-
.	.	.	24dd
.	.	.	24ee-
.	.	.	24gg
.	.	.	24b
.	.	.	24cc
.	.	.	=49
.	.	.	4f
.	.	.	24e
.	.	.	24f
.	.	.	24a
.	.	.	24e-
.	.	.	24f
.	.	.	24a
=50	=50	=50	24e
8F	8F	24e	.
.	.	.	24f
.	.	24f	.
.	.	.	24a
.	.	24a	.
.	.	.	24e-
8r	8r	24e-	.
.	.	.	24f
.	.	24f	.
.	.	.	24a
.	.	24a	.
.	.	.	24e
8F	8F	24e	.
.	.	.	24f
.	.	24f	.
.	.	.	24a
.	.	24a	.
.	.	.	24e-
8r	8r	24e-	.
.	.	.	24f
.	.	24f	.
.	.	.	24ee-
.	.	24a	.
.	.	.	=50
4BB-	4B-	4b-	2cc
4r	4r	4r	.
=51	=51	=51	4b-
6..d-	6..dd-	6..dd-	.
.	.	.	4r
24c	24cc	24cc	.
24B-	24b-	24b-	.
24A-	24a-	24a-	.
24G	24g	24g	.
24F	24f	24f	.
.	.	.	=51
8E	8e	8e	6..dd-
8r	8r	8r	.
8E	8c	8gg	.
.	.	.	24cc
.	.	.	24b-
16.r	16.r	16.r	24a-
.	.	.	24g
.	.	.	24f
32E	32c	32gg	.
=52	=52	=52	8e
8E	8c	8gg	.
.	.	.	8r
4.r	2r	4.r	.
.	.	.	8cc 8bb-
.	.	.	16.r
.	.	.	32bb- 32cc
.	.	.	=52
4F	.	2cc	8cc 8bb-
.	8f	.	4.r
4r	8a-	.	.
.	8f	.	.
=53	=53	=53	24cc
4F	8r	4aa-	.
.	.	.	24ff
.	.	.	24aa-
.	.	.	24ccc
.	8f	.	.
.	.	.	24aa-
.	.	.	24ff
.	.	.	24cc
4r	8g	8gg	.
.	.	.	24ff
.	.	.	24aa-
.	.	.	24ccc
.	8a-	8ff	.
.	.	.	24aa-
.	.	.	24ff
.	.	.	=53
4C	8r	4ee	24cc
.	.	.	24ff
.	.	.	24aa-
.	8g	.	24ccc
.	.	.	24aa-
.	.	.	24ff
4r	8b-	8.ee	24cc
.	.	.	24ff
.	.	.	24aa-
.	8e	.	24ccc
.	.	.	24aa-
.	.	32ff	.
.	.	.	24ff
.	.	32gg	.
=54	=54	=54	24cc
8F	8f	8ff	.
.	.	.	24gg
.	.	.	24bb-
.	.	.	24ccc
6r	6r	6r	.
.	.	.	24bb-
.	.	.	24gg
.	.	.	24cc
.	.	.	24gg
24d-	24dd-	24dd-	.
.	.	.	24bb-
24c	24cc	24cc	.
.	.	.	24ccc
24B-	24b-	24b-	.
.	.	.	24bb-
24A-	24a-	24a-	.
.	.	.	24gg
24G	24g	24g	.
.	.	.	=54
24F	24f	24f	24aa-
24A-	24a-	24a-	24ccc
24G	24g	24g	24bb-
24F	24f	24f	24aa-
24c	24cc	24cc	24gg
24B-	24b-	24b-	24ff
24A-	24a-	24a-	24ee
24G	24g	24g	24dd-
24F	24f	24f	24cc
24E-	24e-	24e-	24b-
24D	24d	24d	24a-
24C	24c	24c	24g
=55	=55	=55	24f
4BB-	4B-	4B-	.
.	.	.	24a-
.	.	.	24g
.	.	.	24f
.	.	.	24cc
.	.	.	24b-
.	.	.	24a-
4r	4.r	4r	.
.	.	.	24g
.	.	.	24f
.	.	.	24e-
.	.	.	24d
.	.	.	24c
.	.	.	=55
4E-	.	2b-	24B-
.	.	.	24d
.	.	.	24f
.	8e-	.	24a-
.	.	.	24b-
.	.	.	24dd
4r	8g	.	24ff
.	.	.	24ee-
.	.	.	24dd
.	8e-	.	24cc
.	.	.	24b-
.	.	.	24a-
=56	=56	=56	24g
4E-	8r	4gg	.
.	.	.	24b-
.	.	.	24ee-
.	.	.	24gg
.	8e-	.	.
.	.	.	24ee-
.	.	.	24b-
.	.	.	24g
4r	8f	8ff	.
.	.	.	24b-
.	.	.	24ee-
.	.	.	24gg
.	8g	8ee-	.
.	.	.	24ee-
.	.	.	24b-
.	.	.	=56
4BB-	8r	4dd	24g
.	.	.	24b-
.	.	.	24ee-
.	8f	.	24gg
.	.	.	24ee-
.	.	.	24b-
4r	8a-	8.dd	24g
.	.	.	24b-
.	.	.	24ee-
.	8d	.	24gg
.	.	.	24ee-
.	.	32ee-	.
.	.	.	24b-
.	.	32ff	.
=57	=57	=57	24a-
8E-	8e-	8ee-	.
.	.	.	24b-
.	.	.	24dd
.	.	.	24ff
6r	6r	6r	.
.	.	.	24dd
.	.	.	24b-
.	.	.	24a-
.	.	.	24b-
24C	24c	24cc	.
.	.	.	24dd
24BB-	24B-	24b-	.
.	.	.	24ff
24AA-	24A-	24a-	.
.	.	.	24dd
24GG	24G	24g	.
.	.	.	24b-
24FF	24F	24f	.
.	.	.	=57
2EE-	2E-	2e-	24g
.	.	.	24bb-
.	.	.	24aa-
.	.	.	24gg
.	.	.	24ff
.	.	.	24ee-
.	.	.	24dd
.	.	.	24cc
.	.	.	24b-
.	.	.	24a-
.	.	.	24g
.	.	.	24f
=58	=58	=58	24e-
2DD-	2D-	2d-	.
.	.	.	24g
.	.	.	24b-
.	.	.	24ee-
.	.	.	24b-
.	.	.	24g
.	.	.	24e-
.	.	.	24g
.	.	.	24b-
.	.	.	24ee-
.	.	.	24b-
.	.	.	24g
.	.	.	=58
4CC	4C	4c	24d-
.	.	.	24e-
.	.	.	24g
.	.	.	24b-
.	.	.	24g
.	.	.	24e-
4r	4r	4r	24d-
.	.	.	24e-
.	.	.	24g
.	.	.	24b-
.	.	.	24g
.	.	.	24e-
=59	=59	=59	24c
24r	24r	24r	.
.	.	.	24e
24c	24cc	24cc	.
.	.	.	24g
24B-	24b-	24b-	.
.	.	.	24b-
24A-	24a-	24a-	.
.	.	.	24cc
24G	24g	24g	.
.	.	.	24ee
24F	24f	24f	.
.	.	.	24gg
24E	24e	24e	.
.	.	.	24ff
24D-	24d-	24d-	.
.	.	.	24ee
24C	24c	24c	.
.	.	.	24dd-
24BB-	24B-	24B-	.
.	.	.	24cc
24AA-	24A-	24A-	.
.	.	.	24b-
24GG	24G	24G	.
.	.	.	=59
2AA-	2A-	2A-	24a-
.	.	.	24cc
.	.	.	24b-
.	.	.	24a-
.	.	.	24g
.	.	.	24f
.	.	.	24e
.	.	.	24d-
.	.	.	24c
.	.	.	24B-
.	.	.	24A-
.	.	.	24G
=60	=60	=60	24A-
2AA	4.A	4.A	.
.	.	.	24c
.	.	.	24f
.	.	.	24a-
.	.	.	24f
.	.	.	24c
.	.	.	24A-
.	.	.	24c
.	.	.	24f
.	.	.	24a-
.	8c	8f#	.
.	.	.	24f
.	.	.	24c
.	.	.	=60
4GG	4B	4g	24A
.	.	.	24c
.	.	.	24e-
.	.	.	24f#
.	.	.	24a
.	.	.	24cc
4r	4r	4r	24ee-
.	.	.	24cc
.	.	.	24a
.	.	.	24f#
.	.	.	24e-
.	.	.	24c
=61	=61	=61	24B
4GG	4G	4g	.
.	.	.	24c
.	.	.	24d
.	.	.	24G
.	.	.	24f#
.	.	.	24g
.	.	.	24G
4r	4.r	4r	.
.	.	.	24e
.	.	.	24f
.	.	.	24G
.	.	.	24d
.	.	.	24e-
.	.	.	=61
4GG	.	8g	24G
.	.	.	24c#
.	.	.	24d
.	8ee-	8gg	24G
.	.	.	24d
.	.	.	24e-
4r	8dd	8ff	24G
.	.	.	24c#
.	.	.	24d
.	8cc	8ee-	24G
.	.	.	24B
.	.	.	24c
=62	=62	=62	24G
4GG	8b	8dd	.
.	.	.	24A
.	.	.	24B
.	.	.	24G
.	8cc	8ee-	.
.	.	.	24e-
.	.	.	24g
.	.	.	24G
4r	8b	8dd	.
.	.	.	24d
.	.	.	24f
.	.	.	24G
.	8a	8cc	.
.	.	.	24c
.	.	.	24e-
.	.	.	=62
4GG	8g	8b	24G
.	.	.	24B
.	.	.	24d
.	8cc	8ee-	24G
.	.	.	24c
.	.	.	24e-
4r	8b	8dd	24G
.	.	.	24B
.	.	.	24d
.	8cc	8ee-	24G
.	.	.	24A
.	.	.	24c
=63	=63	=63	24G
8GG	8b	8dd	.
.	.	.	24B
.	.	.	24d
.	.	.	24G
8r	8r	8r	.
.	.	.	24c
.	.	.	24e-
.	.	.	24G
8GG	8G	8B	.
.	.	.	24B
.	.	.	24d
.	.	.	24G
16.r	16.r	16.r	.
.	.	.	24c
.	.	.	24e-
32GG	32G	32B	.
.	.	.	=63
4GG	4G	4B	8G
.	.	.	8r
4r	4r	4r	8g
.	.	.	16.r
.	.	.	32g
==	==	==	4g
*-	*-	*-	*
!!!RWG: This file only contains pitch and duration data.
!!!RWG: Transposing instruments are not transposed.
4r
==
*-
!!!RWG: This file only contains pitch and duration data.
!!!RWG: Transposing instruments are not transposed.
!!!RWG: Key is interpreted using the Humdrum key tool.
!!!SCA: 
!!!YOR: Trautwein Edition
!!!AGN: chamber; string quartet
!!!AFT: stage1
!!!ENC: F. Bennion
!!!END: 1997/04/15
!!!AST: classical
!!!YEC: Copyright 1994, Center for Computer Assisted Research in the Humanities
!!!YEM: Rights to all derivative electronic formats reserved.
!!!YEM: Refer to licensing agreement for further details.
!!!YEN: United States of America
!!!EED: W.B. Hewlett
!!!KEY: 246158253
!!!EMD: Converted from MuseData to Humdrum Jul 30, 1999, by Bret Aarden using muse2kern.
!!!VTS: 954309525
